X:1
T:The Old Granite State
M:2/4
L:1/8
K:C
 cB| A2 AA| AG CE| G2 GG| GG cB| A2 AA| AG CE| D2 DD| D2 CD| E3 E|\
 GE EC| D3 D| ED CD| E3 E| GE DC| D3/2 D/2 D3/2 D/2| D2 CD| E3 E| GE DC|\
 D3 D| ED CD| E3 E| GE DC| A3/2 A/2 A3/2 A/2| A2||
